X: 1
T:Funny NuaimsIt Tanfeeld Pit
M:4/4
L:1/8
C:Tommy Armstrong
K:D
|D2 D>D F2 F>F|G>G G>G A2 A>A|D2 D>D F2 F2|
G>G G>G A2 A>A|B>B B>B A2 A>A| G>G G2 A>A|
A>A A>A A>A G>G|F>F E>E D4|D>C D>E F2 A2|
E>G F>E D4||One Good Source:Polisses &amp; Candymen, The Complete Works of Tommy
